svgs/sharp-solid/martini-glass-empty.svg

<svg xmlns="http://www.w3.org/2000/svg" viewBox="0 0 512 512"><!--! Font Awesome Pro 6.6.0 by @fontawesome - https://fontawesome.com License - https://fontawesome.com/license (Commercial License) Copyright 2024 Fonticons, Inc. --><path d="M0 48L16 64 210.7 258.7 224 272l0 176-64 0-32 0 0 64 32 0 96 0 96 0 32 0 0-64-32 0-64 0 0-176 13.3-13.3L496 64l16-16 0-48L448 0 64 0 0 0 0 48zM106.5 64l299 0L256 213.5 106.5 64z"/></svg>

<svg xmlns="http://www.w3.org/2000/svg" viewBox="0 0 512 512"><!--! Font Awesome Pro 6.4.2 by @fontawesome - https://fontawesome.com License - https://fontawesome.com/license (Commercial License) Copyright 2023 Fonticons, Inc. --><path d="M0 48L16 64 210.7 258.7 224 272V448H160 128v64h32 96 96 32V448H352 288V272l13.3-13.3L496 64l16-16V0H448 64 0V48zM106.5 64h299L256 213.5 106.5 64z"/></svg>
